assets/logos/icons/monitoring-test.svg

<svg height="24" viewBox="0 0 24 24" width="24" xmlns="http://www.w3.org/2000/svg"><path d="m11 18v-13c0-1.65685425 1.3431458-3 3-3s3 1.34314575 3 3v14c0 .5522847.4477153 1 1 1s1-.4477153 1-1v-3c0-1.1045695.8954305-2 2-2h1v2h-1v3c0 1.6568542-1.3431458 3-3 3s-3-1.3431458-3-3v-14c0-.55228475-.4477153-1-1-1s-1 .44771525-1 1v13c0 1.6568542-1.3431458 3-3 3-1.65685425 0-3-1.3431458-3-3v-10c0-.55228475-.44771525-1-1-1s-1 .44771525-1 1v8c0 1.1045695-.8954305 2-2 2h-1v-2h1v-8c0-1.65685425 1.34314575-3 3-3s3 1.34314575 3 3v10c0 .5522847.44771525 1 1 1 .5522847 0 1-.4477153 1-1z" fill="#492f5c" fill-rule="evenodd"/></svg>

<svg xmlns="http://www.w3.org/2000/svg" width="24" height="24" viewBox="0 0 24 24">
  <path fill="#492F5C" fill-rule="evenodd" d="M11,18 L11,5 C11,3.34314575 12.3431458,2 14,2 C15.6568542,2 17,3.34314575 17,5 L17,19 C17,19.5522847 17.4477153,20 18,20 C18.5522847,20 19,19.5522847 19,19 L19,16 C19,14.8954305 19.8954305,14 21,14 L22,14 L22,16 L21,16 L21,19 C21,20.6568542 19.6568542,22 18,22 C16.3431458,22 15,20.6568542 15,19 L15,5 C15,4.44771525 14.5522847,4 14,4 C13.4477153,4 13,4.44771525 13,5 L13,18 C13,19.6568542 11.6568542,21 10,21 C8.34314575,21 7,19.6568542 7,18 L7,8 C7,7.44771525 6.55228475,7 6,7 C5.44771525,7 5,7.44771525 5,8 L5,16 C5,17.1045695 4.1045695,18 3,18 L2,18 L2,16 L3,16 L3,8 C3,6.34314575 4.34314575,5 6,5 C7.65685425,5 9,6.34314575 9,8 L9,18 C9,18.5522847 9.44771525,19 10,19 C10.5522847,19 11,18.5522847 11,18 Z"/>
</svg>
